svgs/google_chat.svg

<svg width="192" height="192" viewBox="0 0 192 192" fill="none" xmlns="http://www.w3.org/2000/svg"><path d="m28.828 169.172-4.242-4.243 4.242 4.243Zm19.657-19.657-4.242-4.243 4.242 4.243ZM34 68h84V56H34v12Zm90 6v60h12V74h-12Zm-96 72V74H16v72h12Zm-12 0v20.343h12V146H16Zm17.071 27.414 19.657-19.657-8.485-8.485-19.657 19.657 8.485 8.485ZM56.971 152H118v-12H56.97v12ZM16 166.343c0 8.909 10.771 13.371 17.071 7.071l-8.485-8.485c1.26-1.26 3.414-.368 3.414 1.414H16ZM124 134a6 6 0 0 1-6 6v12c9.941 0 18-8.059 18-18h-12Zm-6-66a6 6 0 0 1 6 6h12c0-9.941-8.059-18-18-18v12Zm-65.272 85.757A6 6 0 0 1 56.97 152v-12a17.999 17.999 0 0 0-12.728 5.272l8.485 8.485ZM34 56c-9.941 0-18 8.059-18 18h12a6 6 0 0 1 6-6V56Z" fill="#000"/><path d="M74 28h84V16H74v12Zm90 6v60h12V34h-12ZM68 64V34H56v30h12Zm62 48h28v-12h-28v12Zm34-18a6 6 0 0 1-6 6v12c9.941 0 18-8.059 18-18h-12Zm-6-66a6 6 0 0 1 6 6h12c0-9.941-8.059-18-18-18v12ZM74 16c-9.941 0-18 8.059-18 18h12a6 6 0 0 1 6-6V16Z" fill="#000"/></svg>

<?xml version="1.0" encoding="UTF-8" standalone="no"?><svg xmlns:android="http://schemas.android.com/apk/res/android" height="192" width="192" xmlns="http://www.w3.org/2000/svg">
  <path d="M28.828,169.172L24.586,164.929L28.828,169.172ZM48.485,149.515L44.243,145.272L48.485,149.515ZM34,68H118V56H34V68ZM124,74V134H136V74H124ZM28,146V74H16V146H28ZM16,146V166.343H28V146H16ZM33.071,173.414L52.728,153.757L44.243,145.272L24.586,164.929L33.071,173.414ZM56.971,152H118V140H56.971V152ZM16,166.343C16,175.252 26.771,179.714 33.071,173.414L24.586,164.929C25.846,163.669 28,164.561 28,166.343H16ZM124,134C124,137.314 121.314,140 118,140V152C127.941,152 136,143.941 136,134H124ZM118,68C121.314,68 124,70.686 124,74H136C136,64.059 127.941,56 118,56V68ZM52.728,153.757C53.853,152.632 55.379,152 56.971,152V140C52.197,140 47.618,141.896 44.243,145.272L52.728,153.757ZM34,56C24.059,56 16,64.059 16,74H28C28,70.686 30.686,68 34,68V56Z" fill="#000000"/>
  <path d="M74,28H158V16H74V28ZM164,34V94H176V34H164ZM68,64V34H56V64H68ZM130,112H158V100H130V112ZM164,94C164,97.314 161.314,100 158,100V112C167.941,112 176,103.941 176,94H164ZM158,28C161.314,28 164,30.686 164,34H176C176,24.059 167.941,16 158,16V28ZM74,16C64.059,16 56,24.059 56,34H68C68,30.686 70.686,28 74,28V16Z" fill="#000000"/>
</svg>
